X:1
T: The Left Handed Tushkar
C:
R:Reel
Q: 232
K:A
M:4/4
L:1/8
|:E2|AG Ac BE EE|AE Ac eA ce|dc df ea ga|fB ^df e2 E2|
AG Ac BE EE|AE Ac eA ce|dc df ef ge|a2 A2 A2:|
cd|ea fa eA ce|df ^ef Bf df|ea fa eA ce|fB ^df e2 cd|
ea fa eA ce|df ^ef Bf df|ea gf ef ge|a2 A2 A2 cd|
ea fa eA ce|df ^ef Bf df|ea fa eA ce|fB ^df e2 E2|
AG Ac BE EE|AE Ac eA ce|dc df ef ge|a2 A2 A2||
